groups/aromatics/phenyl.svg

<?xml version='1.0' encoding='iso-8859-1'?>
<svg version='1.1' baseProfile='full'
              xmlns='http://www.w3.org/2000/svg'
                      xmlns:rdkit='http://www.rdkit.org/xml'
                      xmlns:xlink='http://www.w3.org/1999/xlink'
                  xml:space='preserve'
width='256px' height='256px' viewBox='0 0 256 256'>
<!-- END OF HEADER -->
<rect style='opacity:1.0;fill:#FFFFFF;stroke:none' width='256.0' height='256.0' x='0.0' y='0.0'> </rect>
<path class='bond-0 atom-0 atom-1' d='M 33.0,191.0 L 102.9,150.7' style='fill:none;fill-rule:evenodd;stroke:#000000;stroke-width:2.0px;stroke-linecap:butt;stroke-linejoin:miter;stroke-opacity:1' />
<path class='bond-1 atom-1 atom-2' d='M 102.9,150.7 L 103.0,69.9' style='fill:none;fill-rule:evenodd;stroke:#000000;stroke-width:2.0px;stroke-linecap:butt;stroke-linejoin:miter;stroke-opacity:1' />
<path class='bond-1 atom-1 atom-2' d='M 115.0,143.7 L 115.1,76.9' style='fill:none;fill-rule:evenodd;stroke:#000000;stroke-width:2.0px;stroke-linecap:butt;stroke-linejoin:miter;stroke-opacity:1' />
<path class='bond-2 atom-2 atom-3' d='M 103.0,69.9 L 172.9,29.6' style='fill:none;fill-rule:evenodd;stroke:#000000;stroke-width:2.0px;stroke-linecap:butt;stroke-linejoin:miter;stroke-opacity:1' />
<path class='bond-3 atom-3 atom-4' d='M 172.9,29.6 L 242.8,70.1' style='fill:none;fill-rule:evenodd;stroke:#000000;stroke-width:2.0px;stroke-linecap:butt;stroke-linejoin:miter;stroke-opacity:1' />
<path class='bond-3 atom-3 atom-4' d='M 172.9,43.6 L 230.7,77.0' style='fill:none;fill-rule:evenodd;stroke:#000000;stroke-width:2.0px;stroke-linecap:butt;stroke-linejoin:miter;stroke-opacity:1' />
<path class='bond-4 atom-4 atom-5' d='M 242.8,70.1 L 242.7,150.8' style='fill:none;fill-rule:evenodd;stroke:#000000;stroke-width:2.0px;stroke-linecap:butt;stroke-linejoin:miter;stroke-opacity:1' />
<path class='bond-5 atom-5 atom-6' d='M 242.7,150.8 L 172.8,191.1' style='fill:none;fill-rule:evenodd;stroke:#000000;stroke-width:2.0px;stroke-linecap:butt;stroke-linejoin:miter;stroke-opacity:1' />
<path class='bond-5 atom-5 atom-6' d='M 230.6,143.8 L 172.8,177.1' style='fill:none;fill-rule:evenodd;stroke:#000000;stroke-width:2.0px;stroke-linecap:butt;stroke-linejoin:miter;stroke-opacity:1' />
<path class='bond-6 atom-6 atom-1' d='M 172.8,191.1 L 102.9,150.7' style='fill:none;fill-rule:evenodd;stroke:#000000;stroke-width:2.0px;stroke-linecap:butt;stroke-linejoin:miter;stroke-opacity:1' />
<path d='M 103.0,74.0 L 103.0,69.9 L 106.5,67.9' style='fill:none;stroke:#000000;stroke-width:2.0px;stroke-linecap:butt;stroke-linejoin:miter;stroke-miterlimit:10;stroke-opacity:1;' />
<path d='M 169.4,31.7 L 172.9,29.6 L 176.4,31.7' style='fill:none;stroke:#000000;stroke-width:2.0px;stroke-linecap:butt;stroke-linejoin:miter;stroke-miterlimit:10;stroke-opacity:1;' />
<path d='M 239.3,68.0 L 242.8,70.1 L 242.8,74.1' style='fill:none;stroke:#000000;stroke-width:2.0px;stroke-linecap:butt;stroke-linejoin:miter;stroke-miterlimit:10;stroke-opacity:1;' />
<path d='M 242.7,146.7 L 242.7,150.8 L 239.2,152.8' style='fill:none;stroke:#000000;stroke-width:2.0px;stroke-linecap:butt;stroke-linejoin:miter;stroke-miterlimit:10;stroke-opacity:1;' />
<path d='M 176.3,189.1 L 172.8,191.1 L 169.3,189.1' style='fill:none;stroke:#000000;stroke-width:2.0px;stroke-linecap:butt;stroke-linejoin:miter;stroke-miterlimit:10;stroke-opacity:1;' />
<path class='atom-1' d='M53.1171,225.963 C55.74,224.451 53.7242,220.954 51.1013,222.466 C48.4783,223.978 46.4625,220.48 49.0854,218.968 C51.7083,217.457 49.6925,213.959 47.0695,215.471 C44.4466,216.983 42.4308,213.486 45.0537,211.974 C47.6766,210.462 45.6608,206.965 43.0378,208.477 C40.4149,209.988 38.3991,206.491 41.022,204.979 C43.6449,203.467 41.6291,199.97 39.0061,201.482 C36.3832,202.994 34.3673,199.497 36.9903,197.985 C39.6132,196.473 37.5973,192.976 34.9744,194.487 C32.3515,195.999 30.3356,192.502 32.9586,190.99 C35.5815,189.478 33.5656,185.981 30.9427,187.493 C28.3198,189.005 26.3039,185.508 28.9268,183.996 C31.5498,182.484 29.5339,178.987 26.911,180.498 C24.2881,182.01 22.2722,178.513 24.8951,177.001 C27.5181,175.489 25.5022,171.992 22.8793,173.504 C20.2563,175.016 18.2405,171.518 20.8634,170.007 C23.4864,168.495 21.4705,164.997 18.8476,166.509 C16.2246,168.021 14.2088,164.524 16.8317,163.012 C19.4546,161.5 17.4388,158.003 14.8159,159.515 C12.1929,161.027 10.1771,157.529 12.8,156.018' style='fill:none;stroke:#7F7F7F;stroke-width:2.0px;stroke-linecap:butt;stroke-linejoin:miter;stroke-opacity:1' />
</svg>

<svg height="256" viewBox="0 0 256 256" width="256" xmlns="http://www.w3.org/2000/svg"><path d="m0 0h256v256h-256z" fill="#fff"/><g fill="none" stroke-width="2"><path d="m33 191 69.9-40.3" stroke="#000"/><path d="m102.9 150.7.1-80.8" stroke="#000"/><path d="m115 143.7.1-66.8" stroke="#000"/><path d="m103 69.9 69.9-40.3" stroke="#000"/><path d="m172.9 29.6 69.9 40.5" stroke="#000"/><path d="m172.9 43.6 57.8 33.4" stroke="#000"/><path d="m242.8 70.1-.1 80.7" stroke="#000"/><path d="m242.7 150.8-69.9 40.3" stroke="#000"/><path d="m230.6 143.8-57.8 33.3" stroke="#000"/><path d="m172.8 191.1-69.9-40.4" stroke="#000"/><path d="m103 74v-4.1l3.5-2" stroke="#000" stroke-miterlimit="10"/><path d="m169.4 31.7 3.5-2.1 3.5 2.1" stroke="#000" stroke-miterlimit="10"/><path d="m239.3 68 3.5 2.1v4" stroke="#000" stroke-miterlimit="10"/><path d="m242.7 146.7v4.1l-3.5 2" stroke="#000" stroke-miterlimit="10"/><path d="m176.3 189.1-3.5 2-3.5-2" stroke="#000" stroke-miterlimit="10"/><path d="m53.117 225.963c2.623-1.512.607-5.009-2.016-3.497s-4.638-1.986-2.016-3.498c2.623-1.511.608-5.009-2.015-3.497s-4.639-1.985-2.016-3.497.607-5.009-2.016-3.497c-2.623 1.511-4.639-1.986-2.016-3.498s.607-5.009-2.016-3.497-4.639-1.985-2.016-3.497.607-5.009-2.016-3.498c-2.622 1.512-4.638-1.985-2.015-3.497s.607-5.009-2.016-3.497-4.639-1.985-2.016-3.497.607-5.009-2.016-3.498c-2.623 1.512-4.639-1.985-2.016-3.497s.607-5.009-2.016-3.497-4.638-1.986-2.016-3.497c2.623-1.512.608-5.01-2.015-3.498s-4.639-1.985-2.016-3.497.607-5.009-2.016-3.497-4.639-1.986-2.016-3.497" stroke="#7f7f7f"/></g></svg>
